icons/comment-locked-16.svg

<svg width="16" height="16" viewBox="0 0 16 16" fill="none" xmlns="http://www.w3.org/2000/svg">
<path fill-rule="evenodd" clip-rule="evenodd" d="M12 6C13.6569 6 15 7.34315 15 9V10.168C15.5912 10.4488 16 11.0519 16 11.75V14.25C16 15.2165 15.2165 16 14.25 16H9.75C8.7835 16 8 15.2165 8 14.25V11.75C8 11.0519 8.40876 10.4488 9 10.168V9C9 7.34315 10.3431 6 12 6ZM12 7.5C11.1716 7.5 10.5 8.17157 10.5 9V10H13.5V9C13.5 8.17157 12.8284 7.5 12 7.5Z" fill="#010409"/>
<path d="M10.25 1C10.7141 1 11.1591 1.18451 11.4873 1.5127C11.8155 1.84088 12 2.28588 12 2.75V4.25C12 4.66421 11.6642 5 11.25 5C10.8358 5 10.5 4.66421 10.5 4.25V2.75C10.5 2.6837 10.4737 2.62013 10.4268 2.57324C10.3799 2.52637 10.3163 2.5 10.25 2.5H1.75C1.6837 2.5 1.62013 2.52636 1.57324 2.57324C1.52636 2.62013 1.5 2.6837 1.5 2.75V8.25C1.5 8.3163 1.52636 8.37987 1.57324 8.42676C1.62013 8.47364 1.6837 8.5 1.75 8.5H2.75C2.94891 8.5 3.13962 8.57908 3.28027 8.71973C3.42092 8.86038 3.5 9.05109 3.5 9.25V11.4404L6.21973 8.71973C6.36025 8.57904 6.55115 8.50017 6.75 8.5H7.09961C7.51378 8.50005 7.84961 8.83582 7.84961 9.25C7.84961 9.66418 7.51378 9.99995 7.09961 10H7.06055L4.4873 12.5732C4.28356 12.7769 4.02375 12.9155 3.74121 12.9717C3.45864 13.0279 3.16558 12.9989 2.89941 12.8887C2.63342 12.7785 2.40617 12.5918 2.24609 12.3525C2.08599 12.113 2.0001 11.8311 2 11.543V10H1.75C0.784 10 0 9.216 0 8.25V2.75C0 2.28587 0.184507 1.84089 0.512695 1.5127C0.840884 1.18451 1.28587 1 1.75 1H10.25Z" fill="#010409"/>
<path d="M14.25 3C15.216 3 16 3.784 16 4.75V5.5C16 5.43904 15.9968 5.3846 15.9941 5.33594C15.9515 5.70962 15.6351 6 15.25 6C14.8358 6 14.5 5.66421 14.5 5.25V4.75C14.5 4.6837 14.4737 4.62013 14.4268 4.57324C14.3799 4.52637 14.3163 4.5 14.25 4.5H13.75C13.5511 4.5 13.3603 4.42092 13.2197 4.28027C13.079 4.13962 13 3.9489 13 3.75C13 3.5511 13.079 3.36038 13.2197 3.21973C13.3603 3.07908 13.5511 3 13.75 3H14.25Z" fill="#010409"/>
</svg>

<svg xmlns="http://www.w3.org/2000/svg" width="16" height="16" viewBox="0 0 16 16"><path d="M12 6a3 3 0 0 1 3 3v1.168c.591.281 1 .884 1 1.582v2.5A1.75 1.75 0 0 1 14.25 16h-4.5A1.75 1.75 0 0 1 8 14.25v-2.5c0-.698.409-1.301 1-1.582V9a3 3 0 0 1 3-3Zm0 1.5A1.5 1.5 0 0 0 10.5 9v1h3V9A1.5 1.5 0 0 0 12 7.5Z"/><path d="M10.25 1A1.75 1.75 0 0 1 12 2.75v1.5a.75.75 0 0 1-1.5 0v-1.5a.25.25 0 0 0-.25-.25h-8.5a.25.25 0 0 0-.25.25v5.5a.25.25 0 0 0 .25.25h1c.199 0 .39.079.53.22.141.14.22.331.22.53v2.19l2.72-2.72a.747.747 0 0 1 .53-.22h.35a.75.75 0 0 1 0 1.5h-.039l-2.574 2.573A1.457 1.457 0 0 1 2 11.543V10h-.25A1.75 1.75 0 0 1 0 8.25v-5.5A1.75 1.75 0 0 1 1.75 1h8.5Zm4 2c.966 0 1.75.784 1.75 1.75v.75c0-.061-.003-.115-.006-.164A.75.75 0 0 1 14.5 5.25v-.5a.25.25 0 0 0-.25-.25h-.5a.747.747 0 0 1-.53-.22.747.747 0 0 1 0-1.06.747.747 0 0 1 .53-.22h.5Z"/></svg>
